X:7717
T:Tullock Gorum, JMT076
O:england
M:4/4
L:1/8
Q:100
S:J.Moore,Tyneside,1841.(52b)
R:Strathspey
A:Northumbria
K:G
c|B<Gd<G c<FAc|B<GdG Bcdg|B<Gd<G c=FAB|Ggd>c {c}B2A:|
|:B|G>gd>e =fFA2|G<gd>g B>gd>g|G>gd>e =fF (d/c/B/A/)|G>gd>g {d}c2B>A|
G>gd>e =fF (d/c/B/A/)|G>gd>e =f>g {fg}a>g|=f>ef>d c>FA>f|g>d (g/-a/.bg2d
|]


